src/assets/images/blogs/quickCompare.svg

<svg width="22" height="22" viewBox="0 0 22 22" fill="none" xmlns="http://www.w3.org/2000/svg">
<path d="M0.5 21.5H3.524L10.9827 19.4188L18.4415 21.5H21.5V5.975C21.5 5.74847 21.4554 5.52416 21.3687 5.31487C21.282 5.10558 21.1549 4.91542 20.9948 4.75524C20.8346 4.59506 20.6444 4.468 20.4351 4.38131C20.2258 4.29462 20.0015 4.25 19.775 4.25H2.225C1.99847 4.25 1.77416 4.29462 1.56487 4.38131C1.35558 4.468 1.16542 4.59506 1.00524 4.75524C0.84506 4.91542 0.717997 5.10558 0.631308 5.31487C0.544618 5.52416 0.5 5.74847 0.5 5.975V21.5Z" fill="#9B9B9B"/>
<path d="M19.25 9.5H18.5C18.0875 9.5 17.75 9.1625 17.75 8.75V8C17.75 7.5875 18.0875 7.25 18.5 7.25H19.25C19.6625 7.25 20 7.5875 20 8V8.75C20 9.17 19.6625 9.5 19.25 9.5ZM20 12.5V11.75C20 11.3375 19.6625 11 19.25 11H18.5C18.0875 11 17.75 11.3375 17.75 11.75V12.5C17.75 12.9125 18.0875 13.25 18.5 13.25H19.25C19.6625 13.25 20 12.92 20 12.5ZM20 16.25V15.5C20 15.0875 19.6625 14.75 19.25 14.75H18.5C18.0875 14.75 17.75 15.0875 17.75 15.5V16.25C17.75 16.6625 18.0875 17 18.5 17H19.25C19.6625 17 20 16.67 20 16.25ZM4.25 15.5V16.25C4.25 16.6625 3.9125 17 3.5 17H2.75C2.3375 17 2 16.6625 2 16.25V15.5C2 15.0875 2.3375 14.75 2.75 14.75H3.5C3.9125 14.75 4.25 15.0875 4.25 15.5ZM3.5 7.25H2.75C2.3375 7.25 2 7.5875 2 8V8.75C2 9.1625 2.3375 9.5 2.75 9.5H3.5C3.9125 9.5 4.25 9.1625 4.25 8.75V8C4.25 7.5875 3.9125 7.25 3.5 7.25ZM3.5 11H2.75C2.3375 11 2 11.3375 2 11.75V12.5C2 12.9125 2.3375 13.25 2.75 13.25H3.5C3.9125 13.25 4.25 12.9125 4.25 12.5V11.75C4.25 11.3375 3.9125 11 3.5 11Z" fill="#83CBFF"/>
<path d="M18.5 21.5H13.2402L10.9782 20.2025L8.717 21.5H3.5V2.345C3.5 1.325 4.325 0.5 5.345 0.5H16.655C17.675 0.5 18.5 1.325 18.5 2.345V21.5Z" fill="#D3D3D3"/>
<path d="M13.25 21.5H8.75V18.6875C8.75 18.17 9.17 17.75 9.6875 17.75H12.3125C12.83 17.75 13.2575 18.17 13.2575 18.695V21.5H13.25Z" fill="#1C1C1C"/>
<path d="M9.875 12.5H7.625C7.4225 12.5 7.25 12.335 7.25 12.125V10.6175C7.25 10.415 7.415 10.2425 7.625 10.2425H9.8825C10.085 10.2425 10.2575 10.4075 10.2575 10.6175V12.125C10.2555 12.2251 10.2144 12.3205 10.1429 12.3906C10.0713 12.4608 9.97516 12.5 9.875 12.5ZM14.75 12.1325V10.625C14.75 10.4225 14.585 10.25 14.375 10.25H12.125C11.9225 10.25 11.75 10.415 11.75 10.625V12.1325C11.75 12.335 11.915 12.5075 12.125 12.5075H14.3825C14.585 12.5 14.75 12.335 14.75 12.1325ZM10.25 15.8825V14.375C10.25 14.1725 10.085 14 9.875 14H7.625C7.4225 14 7.25 14.165 7.25 14.375V15.8825C7.25 16.085 7.415 16.2575 7.625 16.2575H9.8825C10.085 16.25 10.25 16.085 10.25 15.8825ZM14.75 15.8825V14.375C14.75 14.1725 14.585 14 14.375 14H12.125C11.9225 14 11.75 14.165 11.75 14.375V15.8825C11.75 16.085 11.915 16.2575 12.125 16.2575H14.3825C14.585 16.25 14.75 16.085 14.75 15.8825ZM10.25 4.6325V3.125C10.25 2.9225 10.085 2.75 9.875 2.75H7.625C7.4225 2.75 7.25 2.915 7.25 3.125V4.6325C7.25 4.835 7.415 5.0075 7.625 5.0075H9.8825C10.085 5 10.25 4.835 10.25 4.6325ZM14.75 4.6325V3.125C14.75 2.9225 14.585 2.75 14.375 2.75H12.125C11.9225 2.75 11.75 2.915 11.75 3.125V4.6325C11.75 4.835 11.915 5.0075 12.125 5.0075H14.3825C14.585 5 14.75 4.835 14.75 4.6325ZM10.25 8.3825V6.875C10.25 6.6725 10.085 6.5 9.875 6.5H7.625C7.4225 6.5 7.25 6.665 7.25 6.875V8.3825C7.25 8.585 7.415 8.7575 7.625 8.7575H9.8825C10.085 8.75 10.25 8.585 10.25 8.3825ZM14.75 8.3825V6.875C14.75 6.6725 14.585 6.5 14.375 6.5H12.125C11.9225 6.5 11.75 6.665 11.75 6.875V8.3825C11.75 8.585 11.915 8.7575 12.125 8.7575H14.3825C14.585 8.75 14.75 8.585 14.75 8.3825Z" fill="#83CBFF"/>
</svg>

<svg xmlns="http://www.w3.org/2000/svg" width="22" height="22" fill="none"><path fill="#9B9B9B" d="M.5 21.5h3.024l7.459-2.081 7.459 2.081H21.5V5.975a1.725 1.725 0 0 0-1.725-1.725H2.225A1.725 1.725 0 0 0 .5 5.975z"/><path fill="#83CBFF" d="M19.25 9.5h-.75a.75.75 0 0 1-.75-.75V8c0-.412.337-.75.75-.75h.75c.413 0 .75.338.75.75v.75c0 .42-.337.75-.75.75m.75 3v-.75a.75.75 0 0 0-.75-.75h-.75a.75.75 0 0 0-.75.75v.75c0 .412.337.75.75.75h.75c.413 0 .75-.33.75-.75m0 3.75v-.75a.75.75 0 0 0-.75-.75h-.75a.75.75 0 0 0-.75.75v.75c0 .413.337.75.75.75h.75c.413 0 .75-.33.75-.75M4.25 15.5v.75c0 .413-.337.75-.75.75h-.75a.75.75 0 0 1-.75-.75v-.75c0-.412.337-.75.75-.75h.75c.413 0 .75.338.75.75M3.5 7.25h-.75A.75.75 0 0 0 2 8v.75c0 .412.337.75.75.75h.75c.413 0 .75-.338.75-.75V8a.75.75 0 0 0-.75-.75m0 3.75h-.75a.75.75 0 0 0-.75.75v.75c0 .412.337.75.75.75h.75c.413 0 .75-.338.75-.75v-.75A.75.75 0 0 0 3.5 11"/><path fill="#D3D3D3" d="M18.5 21.5h-5.26l-2.262-1.297L8.717 21.5H3.5V2.345C3.5 1.325 4.325.5 5.345.5h11.31c1.02 0 1.845.825 1.845 1.845z"/><path fill="#1C1C1C" d="M13.25 21.5h-4.5v-2.812c0-.518.42-.938.938-.938h2.624c.518 0 .946.42.946.945V21.5z"/><path fill="#83CBFF" d="M9.875 12.5h-2.25a.376.376 0 0 1-.375-.375v-1.508c0-.202.165-.375.375-.375h2.258c.202 0 .375.165.375.375v1.508a.383.383 0 0 1-.383.375m4.875-.367v-1.508a.376.376 0 0 0-.375-.375h-2.25a.376.376 0 0 0-.375.375v1.508c0 .202.165.375.375.375h2.258a.38.38 0 0 0 .367-.375m-4.5 3.75v-1.508A.376.376 0 0 0 9.875 14h-2.25a.376.376 0 0 0-.375.375v1.508c0 .202.165.375.375.375h2.258a.38.38 0 0 0 .367-.375m4.5 0v-1.508a.376.376 0 0 0-.375-.375h-2.25a.376.376 0 0 0-.375.375v1.508c0 .202.165.375.375.375h2.258a.38.38 0 0 0 .367-.375m-4.5-11.25V3.125a.376.376 0 0 0-.375-.375h-2.25a.376.376 0 0 0-.375.375v1.508c0 .202.165.375.375.375h2.258a.38.38 0 0 0 .367-.375m4.5 0V3.125a.376.376 0 0 0-.375-.375h-2.25a.376.376 0 0 0-.375.375v1.508c0 .202.165.375.375.375h2.258a.38.38 0 0 0 .367-.375m-4.5 3.75V6.875a.376.376 0 0 0-.375-.375h-2.25a.376.376 0 0 0-.375.375v1.508c0 .202.165.375.375.375h2.258a.38.38 0 0 0 .367-.375m4.5 0V6.875a.376.376 0 0 0-.375-.375h-2.25a.376.376 0 0 0-.375.375v1.508c0 .202.165.375.375.375h2.258a.38.38 0 0 0 .367-.375"/></svg>
